assets/img/braze_icons/rows-02.svg

<svg fill="none" height="24" viewBox="0 0 24 24" width="24" xmlns="http://www.w3.org/2000/svg"><g fill="#801ed7"><path d="m20.4 11c.5601 0 .8401 0 1.054-.109.1882-.0959.3411-.2488.437-.437.109-.2139.109-.49395.109-1.054v-3.23854c0-.52713 0-.98192-.0306-1.35648-.0323-.39535-.1036-.78857-.2964-1.16695-.2876-.56448-.7465-1.02343-1.311-1.31105-.3784-.19279-.7716-.26411-1.167-.29641-.3745-.0306-.8293-.03059-1.3564-.03057h-11.67714c-.52714-.00002-.98192-.00003-1.35649.03057-.39534.0323-.78856.10362-1.16694.29641-.56449.28762-1.02343.74656-1.31105 1.31105-.19279.37838-.26411.7716-.29641 1.16694-.0306.37457-.03059.82933-.03057 1.35647v3.23856c0 .56005 0 .8401.10899 1.054.09588.1882.24886.3411.43702.437.21391.109.49394.109 1.05399.109z"/><path d="m3.6 13c-.56005 0-.84008 0-1.05399.109-.18816.0959-.34114.2488-.43702.437-.10899.2139-.10899.4939-.10899 1.054v3.2386c-.00002.5271-.00003.9819.03057 1.3564.0323.3954.10362.7886.29641 1.167.28762.5645.74656 1.0234 1.31105 1.311.37838.1928.7716.2641 1.16694.2964.37457.0306.82932.0306 1.35646.0306h11.67717c.5271 0 .9819 0 1.3564-.0306.3954-.0323.7886-.1036 1.167-.2964.5645-.2876 1.0234-.7465 1.311-1.311.1928-.3784.2641-.7716.2964-1.167.0306-.3745.0306-.8293.0306-1.3564v-3.2386c0-.5601 0-.8401-.109-1.054-.0959-.1882-.2488-.3411-.437-.437-.2139-.109-.4939-.109-1.054-.109z"/></g></svg>

<svg width="24" height="24" viewBox="0 0 24 24" fill="none" xmlns="http://www.w3.org/2000/svg">
<path d="M20.4 11C20.9601 11 21.2401 11 21.454 10.891C21.6422 10.7951 21.7951 10.6422 21.891 10.454C22 10.2401 22 9.96005 22 9.4V6.16146C22 5.63433 22 5.17954 21.9694 4.80498C21.9371 4.40963 21.8658 4.01641 21.673 3.63803C21.3854 3.07355 20.9265 2.6146 20.362 2.32698C19.9836 2.13419 19.5904 2.06287 19.195 2.03057C18.8205 1.99997 18.3657 1.99998 17.8386 2L6.16146 2C5.63432 1.99998 5.17954 1.99997 4.80497 2.03057C4.40963 2.06287 4.01641 2.13419 3.63803 2.32698C3.07354 2.6146 2.6146 3.07354 2.32698 3.63803C2.13419 4.01641 2.06287 4.40963 2.03057 4.80497C1.99997 5.17954 1.99998 5.6343 2 6.16144L2 9.4C2 9.96005 2 10.2401 2.10899 10.454C2.20487 10.6422 2.35785 10.7951 2.54601 10.891C2.75992 11 3.03995 11 3.6 11L20.4 11Z" fill="#801ED7"/>
<path d="M3.6 13C3.03995 13 2.75992 13 2.54601 13.109C2.35785 13.2049 2.20487 13.3578 2.10899 13.546C2 13.7599 2 14.0399 2 14.6L2 17.8386C1.99998 18.3657 1.99997 18.8205 2.03057 19.195C2.06287 19.5904 2.13419 19.9836 2.32698 20.362C2.6146 20.9265 3.07354 21.3854 3.63803 21.673C4.01641 21.8658 4.40963 21.9371 4.80497 21.9694C5.17954 22 5.63429 22 6.16143 22H17.8386C18.3657 22 18.8205 22 19.195 21.9694C19.5904 21.9371 19.9836 21.8658 20.362 21.673C20.9265 21.3854 21.3854 20.9265 21.673 20.362C21.8658 19.9836 21.9371 19.5904 21.9694 19.195C22 18.8205 22 18.3657 22 17.8386V14.6C22 14.0399 22 13.7599 21.891 13.546C21.7951 13.3578 21.6422 13.2049 21.454 13.109C21.2401 13 20.9601 13 20.4 13L3.6 13Z" fill="#801ED7"/>
</svg>
